!!!COM: Palestrina, Giovanni Perluigi da
!!!OPR: Missa Sine nomine (1567)
!!!OTL: Benedictus
**kern	**kern	**kern	**kern
*Ibass	*Itenor	*Icalto	*Icant
!Bassus	!Tenor	!Altus	!Cantus
*clefF4	*clefGv2	*clefG2	*clefG2
*k[]	*k[]	*k[]	*k[]
*E:phr	*E:phr	*E:phr	*E:phr
*M4/2	*M4/2	*M4/2	*M4/2
=1	=1	=1	=1
0r	0E	0r	0r
=2	=2	=2	=2
0r	1E	0r	0r
.	1F	.	.
=3	=3	=3	=3
0r	1E	0r	0e
.	2.A	.	.
.	4G	.	.
=4	=4	=4	=4
0r	4A	0r	1e
.	4B	.	.
.	2c	.	.
.	2A	.	1f
.	[2d	.	.
=5	=5	=5	=5
0r	2d]	0A	1e
.	4c	.	.
.	4B	.	.
.	1c	.	2.a
.	.	.	4g
=6	=6	=6	=6
0r	2.F	1A	4a
.	.	.	4b
.	.	.	2.cc
.	4G	.	.
.	1A	1c	.
.	.	.	4b
.	.	.	[2a
=7	=7	=7	=7
1r	1E	1B	2a]
.	.	.	4g
.	.	.	4f
[1E	2r	2.e	[1g
.	2E	.	.
.	.	4d	.
=8	=8	=8	=8
1E]	2.G	4e	2g]
.	.	4f	.
.	.	2.g	2e
.	4A	.	.
1E	2B	.	1e
.	.	4f	.
.	[2c	[2e	.
=9	=9	=9	=9
1F	4c]	2e]	1r
.	4B	.	.
.	1A	2d	.
1E	.	2c	[1e
.	2G#	2B	.
=10	=10	=10	=10
2.A	1A	1c	0e]
4G	.	.	.
4A	1r	2.A	.
4B	.	.	.
[2c	.	.	.
.	.	4G	.
=11	=11	=11	=11
4c]	0r	4A	1e
4B	.	4B	.
4A	.	2c	.
4G	.	.	.
2F	.	2A	1f
2D	.	[2d	.
=12	=12	=12	=12
1A	2r	2d]	1e
.	2.A	2c	.
1D	.	1f	2.a
.	4G	.	.
.	4A	.	.
.	4B	.	4g
=13	=13	=13	=13
2.A	1c	2e	4a
.	.	.	4b
.	.	2A	2.cc
4G	.	.	.
1F	2.A	2c	.
.	.	.	4b
.	.	2d	[2a
.	4B	.	.
=14	=14	=14	=14
0E	2c	2.e	2a]
.	4B	.	2g
.	4A	4f	.
.	2G	2.g	2.e
.	[2c	.	.
.	.	4f	4f
=15	=15	=15	=15
2r	2c]	2e	1g
2G	4B	4d	.
.	4A	4c	.
2G	1B	2d	1g
2G	.	[2e	.
=16	=16	=16	=16
2A	1c	4e]	2r
.	.	4d	.
1c	.	4e	2g
.	.	4c	.
.	1G	1d	2g
2B	.	.	2g
=17	=17	=17	=17
2.A	2r	1c	2a
.	2e	.	1cc
4G	.	.	.
2E	2e	1r	.
2G	2e	.	2b
=18	=18	=18	=18
2.F	2A	1c	2.a
.	2F	.	.
4E	.	.	4g
2C	1G	2c	2e
2E	.	2c	2g
=19	=19	=19	=19
1.D	[0A	2d	4f
.	.	.	4e
.	.	1f	4d
.	.	.	4c
.	.	.	2d
2C#	.	2e	2e
=20	=20	=20	=20
2.D	1A]	2d	1.f
.	.	2c	.
4E	.	.	.
2F	1r	4A	.
.	.	4B	.
2C	.	[2c	2e
=21	=21	=21	=21
1G	2r	2c]	2d
.	2G	4B	2.g
.	.	4A	.
1E	2G	2B	.
.	.	.	4f
.	2G	[2c	[2e
=22	=22	=22	=22
1F	1A	4c]	2e]
.	.	4B	.
.	.	1A	2d
1C	[1c	.	1e
.	.	2G	.
=23	=23	=23	=23
2r	2c]	1G	0d
2G	4B	.	.
.	4A	.	.
2G	2B	1r	.
2G	2B	.	.
=24	=24	=24	=24
1.A	4c	2r	1c
.	4B	.	.
.	4A	2c	.
.	4G	.	.
.	2F	2c	2r
[2c	2C	2c	2g
=25	=25	=25	=25
2c]	1G	1d	2g
2B	.	.	2g
2.A	1r	2f	2a
.	.	[2e	[2cc
4G	.	.	.
=26	=26	=26	=26
2E	0r	2e]	2cc]
2G	.	2.d	2b
2.F	.	.	2.a
.	.	4c	.
.	.	2A	.
4E	.	.	4g
=27	=27	=27	=27
2.C	2r	2.c	2e
.	2G	.	2.g
4D	.	4B	.
4E	2G	2G	.
4F	.	.	4f
2G	2G	2B	2d
=28	=28	=28	=28
2F	2A	2A	2f
2C	1c	2G	2e
1G	.	1r	2.d
.	2B	.	.
.	.	.	4e
=29	=29	=29	=29
2.F	2.A	1c	4f
.	.	.	4g
.	.	.	2a
4E	4G	.	.
2C	2E	2c	2g
2E	2G	2c	2e
=30	=30	=30	=30
1D	4F	2d	2.f
.	4G	.	.
.	4A	1f	.
.	4B	.	4g
1C	2.c	.	2a
.	.	2e	[2g
.	4B	.	.
=31	=31	=31	=31
0D	1A	1d	2g]
.	.	.	4f
.	.	.	4e
.	1A	1d	2f#
.	.	.	2f#
=32	=32	=32	=32
1G	1G	1B	1g
1c	1r	1e	1g
=33	=33	=33	=33
2B	0r	2d	1g
1c	.	1e	.
.	.	.	1g
4B	.	4d	.
4A	.	4c	.
=34	=34	=34	=34
2G#	0r	2B	1e
2.A	.	2.c	.
.	.	.	1e
4G	.	4B	.
2E	.	[2e	.
=35	=35	=35	=35
1F	1r	2e]	1a
.	.	2d	.
2.C	1c	[1e	[1g
4D	.	.	.
=36	=36	=36	=36
1E	2B	1e]	1g]
.	1c	.	.
1C	.	2r	1cc
.	4B	2e	.
.	4A	.	.
=37	=37	=37	=37
0r	2G#	2e	2b
.	1A	2e	1cc
.	.	2c	.
.	4G	2d	4b
.	4F	.	4a
=38	=38	=38	=38
0r	2E	4e	2g#
.	.	4d	.
.	2.F	4c	2.a
.	.	4B	.
.	.	4A	.
.	4E	4B	4g
.	2C	[2c	2e
=39	=39	=39	=39
1r	1D	2c]	1f
.	.	2B	.
2r	1A	2c	2.e
2c	.	2e	.
.	.	.	4f
=40	=40	=40	=40
2B	0r	2d	0g
1c	.	1e	.
4B	.	4d	.
4A	.	4c	.
=41	=41	=41	=41
2G#	1r	2B	1e
2.A	.	2.c	.
.	1e	.	1r
4G	.	4B	.
2E	.	2G	.
=42	=42	=42	=42
2F	2d	2A	1r
2E	1e	2B	.
2A	.	2c	1a
2D	4d	2A	.
.	4c	.	.
=43	=43	=43	=43
2E	2B	0e	2g#
4AA	1c	.	1a
4BB	.	.	.
4C	.	.	.
4D	.	.	.
[2E	4B	.	4g
.	4A	.	4f
=44	=44	=44	=44
2E]	2G#	2r	2e
2D	1A	2A	2f
[1C	.	1c	2e
.	4G	.	[2g
.	4F	.	.
=45	=45	=45	=45
1C]	2E	1c	4g]
.	.	.	4f
.	2G	.	1e
1D	1F	1A	.
.	.	.	2d
=46	=46	=46	=46
1AA	2E	1c	[0e
.	2A	.	.
1r	2G#	2B	.
.	[2A	[2c	.
=47	=47	=47	=47
1A	2A]	2c]	0e]
.	4G	4B	.
.	4F	4A	.
2G#	2E	2B	.
[2A	[2c	2c	.
=48	=48	=48	=48
2A]	2c]	1A	[0e
4G	4B	.	.
4F	4A	.	.
2E	2B	2G	.
4AA	[2A	[2c	.
4BB	.	.	.
=49	=49	=49	=49
4C	2A]	2c]	0e]
4D	.	.	.
2E	2G#	2B	.
1AA	1A	1c	.
=50	=50	=50	=50
[0E	[0G#	[0B	[0e
=51	=51	=51	=51
0E]	0G#]	0B]	0e]
==	==	==	==
*-	*-	*-	*-
!!!CDT: 1525/^1526/-1594/2/2
!!!OCY: Italia
!!!AGN: Mass (Free)
!!!AST: renaissance, vocal
!!!ASW: Motet 1539 (Jacquet)
!!!PWK: Masses, Book 2
!!!RNB: Cadence finals: A,C
!!!YOR: Le Opere Complete, v. 4, p. 53
!!!YOO: Rome, Italy: Fratelli Scalera
!!!END: 1992//
!!!EED: John Miller
!!!YEC: Copyright 2000, John Miller
!!!YEN: United States of America
!!!YEM: Rights to all derivative electronic formats reserved.
!!!YEM: Refer to licensing agreement for further details.
!!!YEM: This file must be accompanied by the licensing agreement.
!!!YEM: A copy of the licensing agreement may be found at http://www.music-cog.ohio-state.edu/HumdrumDatabases/Palestrina/license.txt
!!!EMD: converted to Humdrum by Bret Aarden
